!! 00000] TT[WS
!!!OTL: Xiuehua ba
!!!ARE: Asia, China, Shanxi Yanbei
!! Ethnic Group: Han
!! WII, 179 (1)
!!!SCT: J0672
!!!YEM: Copyright 1995, estate of Helmut Schaffrath.
**kern
*ICvox
*Ivox
*M2/4
*k[f#]
*G:
{8dd
8dd
8b
8dd
=1
8cc
8ee
4dd
=2
8ee
8dd
8dd
8a
=3
2g}
=4
{8dd
16dd
16b
8dd
16dd
16b
=5
8g
8b
4a
=6
8dd
8e
8g
16f#
16e
=7
2d}
=8
{8g
8b
8a
8r
=9
8dd
8e
8g
16f#
16e
=10
2d}
==
!!!AGN: Xiaodiao. Laodong, Fengsu
!!!ONB: ESAC (Essen Associative Code) Database: CHINA
!!!AMT: simple duple
!!!AIN: vox
!!!EED: Helmut Schaffrath
!!!EEV: 1.0
*-
